X:519
T:The Advice
M:2/4
L:1/8
B:O'Neill's 519
N:"Moderate" "collected by J. O'Neill"
Z:Transcribed by Dave Wooldridge
K:G
(DG).G (A/2B/2) | DE=F (G3/4F/4) | (DG).G (A/2B/2) | B(c3/4B/4) AG |
 (DG).G (A/2B/2) | DE =F2 | (DG).G (A/2B/2) | B(c/2B/2) {B}AG ||
G(B3/4c/4) d>d | e(c3/4e/4) d2 | G(B3/4c/4) dB | d(c/2B/2) BA |
G(B3/4c/4) d=f | e(c3/4e/4) d>B | (cB).A (G3/4B/4) | dB/2G/2 TAG ||


